svg/logo/github_fill.svg

<?xml version="1.0" encoding="UTF-8"?>
<svg width="24px" height="24px" viewBox="0 0 24 24" version="1.1" xmlns="http://www.w3.org/2000/svg" xmlns:xlink="http://www.w3.org/1999/xlink">
    <title>github_fill</title>
    <g id="页面-1" stroke="none" stroke-width="1" fill="none" fill-rule="evenodd">
        <g id="Logo" transform="translate(-144.000000, -144.000000)" fill-rule="nonzero">
            <g id="github_fill" transform="translate(144.000000, 144.000000)">
                 <path d="M24,0 L24,24 L0,24 L0,0 L24,0 Z M12.5934901,23.257841 L12.5819402,23.2595131 L12.5108777,23.2950439 L12.4918791,23.2987469 L12.4918791,23.2987469 L12.4767152,23.2950439 L12.4056548,23.2595131 C12.3958229,23.2563662 12.3870493,23.2590235 12.3821421,23.2649074 L12.3780323,23.275831 L12.360941,23.7031097 L12.3658947,23.7234994 L12.3769048,23.7357139 L12.4804777,23.8096931 L12.4953491,23.8136134 L12.4953491,23.8136134 L12.5071152,23.8096931 L12.6106902,23.7357139 L12.6232938,23.7196733 L12.6232938,23.7196733 L12.6266527,23.7031097 L12.609561,23.275831 C12.6075724,23.2657013 12.6010112,23.2592993 12.5934901,23.257841 L12.5934901,23.257841 Z M12.8583906,23.1452862 L12.8445485,23.1473072 L12.6598443,23.2396597 L12.6498822,23.2499052 L12.6498822,23.2499052 L12.6471943,23.2611114 L12.6650943,23.6906389 L12.6699349,23.7034178 L12.6699349,23.7034178 L12.678386,23.7104931 L12.8793402,23.8032389 C12.8914285,23.8068999 12.9022333,23.8029875 12.9078286,23.7952264 L12.9118235,23.7811639 L12.8776777,23.1665331 C12.8752882,23.1545897 12.8674102,23.1470016 12.8583906,23.1452862 L12.8583906,23.1452862 Z M12.1430473,23.1473072 C12.1332178,23.1423925 12.1221763,23.1452606 12.1156365,23.1525954 L12.1099173,23.1665331 L12.0757714,23.7811639 C12.0751323,23.7926639 12.0828099,23.8018602 12.0926481,23.8045676 L12.108256,23.8032389 L12.3092106,23.7104931 L12.3186497,23.7024347 L12.3186497,23.7024347 L12.3225043,23.6906389 L12.340401,23.2611114 L12.337245,23.2485176 L12.337245,23.2485176 L12.3277531,23.2396597 L12.1430473,23.1473072 Z" id="MingCute" fill-rule="nonzero"></path>
                <path d="M7.0236,2.31058 C7.64222,2.52096 8.40745,2.85626 9.14865,3.35611 C10.0469,3.12454 11.0061,3 12.0001,3 C12.993,3 13.9513,3.12429 14.8488,3.35541 C15.5898,2.85581 16.3549,2.52068 16.9733,2.31041 C17.6702,2.07347 18.6635,1.68873 19.2532,2.34204 C19.6536,2.78558 19.7529,3.52998 19.8243,4.09751 C19.9041,4.7317 19.9227,5.55836 19.7128,6.37797 C20.5157,7.41477 21.0001,8.65244 21.0001,10 C21.0001,12.0422 19.894,13.8148 18.2569,15.0426 C17.5034,15.6077 16.6274,16.0673 15.6667,16.3988 C15.8811,16.8891 16.0001,17.4307 16.0001,18 L16.0001,21 C16.0001,21.5523 15.5523,22 15.0001,22 L9.00005,22 C8.44777,22 8.00005,21.5523 8.00005,21 L8.00005,20.0087 C7.04473,20.1257 6.24413,20.0222 5.5626,19.7331 C4.85081,19.4311 4.35469,18.9627 3.98181,18.5152 C3.62811,18.0908 3.2425,17.1349 2.6838,16.9487 C2.15986,16.774 1.8767,16.2077 2.05134,15.6838 C2.22599,15.1598 2.79231,14.8767 3.31625,15.0513 C3.98203,15.2732 4.41554,15.7534 4.71319,16.1386 C5.19225,16.7585 5.58364,17.5695 6.3437,17.8919 C6.65626,18.0245 7.11546,18.1125 7.8323,18.0137 L8.0001,17.9802 C8.00283,17.4181 8.12149,16.8834 8.33341,16.3988 C7.37273,16.0673 6.49666,15.6077 5.7432,15.0426 C4.10606,13.8148 3.00005,12.0422 3.00005,10 C3.00005,8.65402 3.48329,7.41765 4.28448,6.38159 C4.07379,5.56134 4.09217,4.73379 4.17192,4.09897 C4.17352,4.08622 4.17512,4.07342 4.17673,4.06057 C4.24961,3.47909 4.33549,2.79383 4.74307,2.34215 C5.33266,1.6888 6.32676,2.07361 7.0236,2.31058 Z" id="路径" fill="#09244B"></path>
            </g>
        </g>
    </g>
</svg>

<svg xmlns="http://www.w3.org/2000/svg" width="24" height="24"><g fill="none" fill-rule="nonzero"><path d="M24 0v24H0V0h24ZM12.593 23.258l-.011.002-.071.035-.02.004-.014-.004-.071-.035c-.01-.004-.019-.001-.024.005l-.004.01-.017.428.005.02.01.013.104.074.015.004.012-.004.104-.074.012-.016.004-.017-.017-.427c-.002-.01-.009-.017-.017-.018Zm.265-.113-.013.002-.185.093-.01.01-.003.011.018.43.005.012.008.007.201.093c.012.004.023 0 .029-.008l.004-.014-.034-.614c-.003-.012-.01-.02-.02-.022Zm-.715.002a.023.023 0 0 0-.027.006l-.006.014-.034.614c0 .012.007.02.017.024l.015-.002.201-.093.01-.008.004-.011.017-.43-.003-.012-.01-.01-.184-.092Z"/><path fill="#09244B" d="M7.024 2.31a9.08 9.08 0 0 1 2.125 1.046A11.432 11.432 0 0 1 12 3c.993 0 1.951.124 2.849.355a9.08 9.08 0 0 1 2.124-1.045c.697-.237 1.69-.621 2.28.032.4.444.5 1.188.571 1.756.08.634.099 1.46-.111 2.28C20.516 7.415 21 8.652 21 10c0 2.042-1.106 3.815-2.743 5.043a9.456 9.456 0 0 1-2.59 1.356c.214.49.333 1.032.333 1.601v3a1 1 0 0 1-1 1H9a1 1 0 0 1-1-1v-.991c-.955.117-1.756.013-2.437-.276-.712-.302-1.208-.77-1.581-1.218-.354-.424-.74-1.38-1.298-1.566a1 1 0 0 1 .632-1.898c.666.222 1.1.702 1.397 1.088.48.62.87 1.43 1.63 1.753.313.133.772.22 1.49.122L8 17.98a3.986 3.986 0 0 1 .333-1.581 9.455 9.455 0 0 1-2.59-1.356C4.106 13.815 3 12.043 3 10c0-1.346.483-2.582 1.284-3.618-.21-.82-.192-1.648-.112-2.283l.005-.038c.073-.582.158-1.267.566-1.719.59-.653 1.584-.268 2.28-.031Z"/></g></svg>
